!!!OTL: 679b. Sichlein rauschen.
!!!ARE: Europa, Mitteleuropa, Deutschland, Heidelberg
!!!SCT: E0679D
!!!TXL: @@DE
!!!YEM: Copyright 1995, estate of Helmut Schaffrath.
**kern	**text
*ICvox	*
*M6/8	*
*k[b-]	*
*F:	*
!LO:TX:a:t=Sanft bewegt.	!
!LO:TX:a:t=Sanft bewegt. Jn Heidelberg 1858 von Ʒuccalm. aufgeʒeichnet. Arnold, Volksl. I. S. 18.	!
{8c	Jch
=1	=1
8aL	hört
8gJ	.
8a	ein
8ccL	Sich-
8b-J	.
8a	-lein
=2	=2
4.g	rau-
4d}	-ſchen,
{16gL	wohl
16aJ	.
=3	=3
8b-L	rau-
8aJ	.
8b-	-ſchen
8ddL	durch
8ccJ	.
8b-	das
=4	=4
[4.a	Korn;
8a]	.
8r}	.
{16aL	ich
16b-J	.
=5	=5
8ccL	hört
8ddJ	.
8cc	ein
(8cc	fei-
8ff)	-ne
8dd	Magd
=6	=6
4.cc}	kla-
{4a	-gen
16fL	ſie
16gJ	.
=7	=7
8aL	hätt
8b-J	.
8a	ihr
8gL	Lieb
8aJ	.
8g	ver-
=8	=8
[4.f	-lorn.
8f]	.
8r}	.
==	==
!!!AGN: Liebes - Lied, Leid, Klage
!!!ONB: ESAC (Essen Associative Code) Database: ERK2
!!!AMT: compound duple
!!!AIN: vox
!!!EED: Helmut Schaffrath
!!!EEV: 1.0
!!!GTL: Liebeslieder [Neuere (aus dem 18. bis 19. Jahrh.) - Liebesleid] 678-740
!!!URL-scan: https://rosdok.uni-rostock.de/mcrviewer/recordIdentifier/rosdok_ppn745177662/iview2/phys_0478.iview2?x=193.8995864193107&y=1821.0429129928816&scale=0.7029437510502773&rotation=0&layout=singlePageLayout
!!!ENC: Anna Maria Matuszewska
!!!EEV: 2024/12/12
*-	*-
